X:1
L:1/8
M:6/8
K:G
""G"" GGG ggg |""D"" agf""G"" ggg | bbb ggg | dBG""D"" cBA |""G"" GGG ggg |""D"" agf""G"" ggg | bbb ggg | 
""D"" ddd Bcd |""Em"" ege ege |""C"" cBc ABc |""D"" ddd ded |""G"" BdB G2 D | GGG GBd | gag dBd | 
""C"" cAB""D"" cAF |""G"" G3- G2 D ||""^Variation""""G"" GBd ggg |""D"" baf""G"" g2 g | bag f/g/fe | 
 dBG""D"" B/c/BA |""G"" GGG ggg |""D"" agf""G"" g2 g | bbb ggg |""D"" dBG cBd |""Em"" eee ege |""C"" cBc ABc | 
""D"" ddd ded |""G"" BdB G2 D |""Em"" GGG GBd |""G"" gag dBd |""C"" cAB cAF |""G"" G6 ||
